!!!COM: Bach, Johann Sebastian
!!!OTL: Inventio No. 6
!! Two-part invention: Inventio 6; in E major; BWV 777
!! Bach-Gesellschaft edition, pp.7-8
!! Performance duration: 3:18; performance tempo: 56.4 quarter-notes per minute.
!! (Andras Schiff, piano, "Two-Part Inventions BWV 772a-786; Three-part
!! Inventions BWV 787-801" Decca 411 974-2)
**kern	**kern
*clefF4	*clefG2
*k[f#c#g#d#]	*k[f#c#g#d#]
*>allrepeats[A,A,B,B]	*>allrepeats[A,A,B,B]
*>norepeats[A,B]	*>norepeats[A,B]
*E:	*E:
*M3/8	*M3/8
*MM56.4	*MM56.4
*>A	*>A
=1	=1
8E	16r
.	8ee
8F#	.
.	8dd#
8G#	.
.	[16ddn
=2	=2
8A	16dd]
.	8cc#
8B	.
.	8b
8c#	.
.	[16a
=3	=3
8d#	16a]
.	8g#
16e	.
16d#	8f#
16c#	.
16B	32g#
.	32a
=4	=4
8e	16g#
.	32b
.	32a
8E	16b
.	32g#
.	32f#
8r	16g#
.	32e
.	32d#
=5	=5
16r	8e
8E	.
.	8f#
8D#	.
.	8g#
[16Dn	.
=6	=6
16D]	8a
8C#	.
.	8b
8BB	.
.	8cc#
[16AA	.
=7	=7
16AA]	8dd#
8GG#	.
.	16ee
8FF#	16dd#
.	16cc#
32GG#	16b
32AA	.
=8	=8
16GG#	8ee
32BB	.
32AA	.
16BB	8e
32GG#	.
32FF#	.
16GG#	8r
32EE	.
32DD#	.
=9	=9
8EE	16r
.	8gg#
8C#	.
.	8ee
8E	.
.	[16cc#
=10	=10
8F#	16cc#]
.	32ee
.	32dd#
8A#	16ee
.	16cc#
8c#	16a#
.	[16f#
=11	=11
8DD#	16f#]
.	8ff#
8BB	.
.	8dd#
8D#	.
.	[16b
=12	=12
8E	16b]
.	32dd#
.	32cc#
8G#	16dd#
.	16b
8B	16g#
.	[16e
=13	=13
8CC#	16e]
.	8ee
8C#	.
.	8cc#
8E	.
.	[16a#
=14	=14
8F#	16a#]
.	8gg#
8G#	.
.	8ff#
8A#	.
.	[16ee
=15	=15
8B	16ee]
.	8dd#
8E	.
.	8cc#
8G#	.
.	16b
=16	=16
16F#	16a#
16c#	32e
.	32d#
16A#	16e
16c#	32a#
.	32g#
16E	16a#
16c#	32b
.	32a#
=17	=17
8D#	16b
.	16d#
8E	16c#
.	16b
8F#	16c#
.	16a#
=18	=18
16BB	8b
32B	.
32A#	.
16B	16r
32F#	16b
32E	.
16F#	16dd#
32D#	16ff#
32C#	.
=19	=19
16D#	8bb
32F#	.
32E	.
16F#	16r
32D#	16bb
32C#	.
16D#	16ff#
32BB	16dd#
32AA#	.
=20	=20
4BB	16b
.	16f#
.	16d#
.	16B
8BBB	8r
*>B	*>B
=21	=21
16r	8B
8B	.
.	8c#
8A#	.
.	8d#
[16An	.
=22	=22
16A]	8e
8G#	.
.	8f#
8F#	.
.	8g#
[16E	.
=23	=23
16E]	8a#
8D#	.
.	16b
8C#	16a#
.	16g#
32D#	16f#
32E	.
=24	=24
16D#	8b
32F#	.
32E	.
16F#	8B
32D#	.
32C#	.
16D#	8r
32BB	.
32AA#	.
=25	=25
8BB	16r
.	8bb
8C#	.
.	8aa#
8D#	.
.	[16aan
=26	=26
8E	16aa]
.	8gg#
8F#	.
.	8ff#
8G#	.
.	[16ee
=27	=27
8A#	16ee]
.	8dd#
16B	.
16A#	8cc#
16G#	.
16F#	32dd#
.	32ee
=28	=28
8B	16dd#
.	32ff#
.	32ee
8BB	16ff#
.	32dd#
.	32cc#
8r	16dd#
.	32b
.	32a#
=29	=29
8G#	16b
.	32dd#
.	32cc#
8B	16dd#
.	32gg#
.	32ff##
8d#	16gg#
.	32cc#
.	32b
=30	=30
8F##	16cc#
.	32ee
.	32dd#
8A#	16ee
.	32aa#
.	32gg#
8d#	16aa#
.	32dd#
.	32cc#
=31	=31
8G#	16dd#
.	32gg#
.	32ff##
8B	16gg#
.	32bb
.	32aa#
8d#	16bb
.	32dd#
.	32cc##
=32	=32
8D#	16dd#
.	32aa#
.	32gg#
8d#	16aa#
.	32ff##
.	32ee#
8c#	16ff##
.	32dd#
.	32cc##
=33	=33
8B#	16dd#
.	8aan
8c#	.
.	8gg#
8d#	.
.	[16ff#
=34	=34
8G#	16ff#]
.	32ee
.	32dd#
8c#	16ee
.	32cc#
.	32b#
8Bn	16cc#
.	32ee
.	32dd#
=35	=35
8A#	16ee
.	8gg#
8B	.
.	8ff#
8c#	.
.	[16ee
=36	=36
8F#	16ee]
.	32dd#
.	32cc#
8B	16dd#
.	32b
.	32a#
8d#	16b
.	32cc#
.	32b
=37	=37
8F##	16cc#
.	8ee
8G#	.
.	8dd#
8A#	.
.	[16cc#
=38	=38
8D#	16cc#]
.	32b
.	32a#
8G#	16b
.	32g#
.	32f##
8B	16g#
.	32an
.	32g#
=39	=39
8C#	16a
.	32cc#
.	32b
8r	16cc#
.	32a
.	32g#
[8c#	16a
.	32ee
.	32dd#
=40	=40
8c#]	16ee
.	32f##
.	32e#
8A#	16f##
.	32a#
.	32g#
8F##	16a#
.	32B
.	32A#
=41	=41
8G#	16B
.	16g#
8C#	16e
.	16c#
8D#	16A#
.	16f##
=42	=42
8GG#	16g#
.	16d#
16r	16B
16GG#	16G#
16G#	8r
[16F#	.
=43	=43
16F#]	8e
8E	.
.	8f#
8D#	.
.	8g#
[16Dn	.
=44	=44
16D]	8a
8C#	.
.	8b
8BB	.
.	8cc#
[16AA	.
=45	=45
16AA]	8dd#
8GG#	.
.	16ee
8FF#	16dd#
.	16cc#
32GG#	16b
32AA	.
=46	=46
16GG#	8.ee
32BB	.
32AA	.
16BB	.
32GG#	32b
32FF#	32a
16GG#	16b
32EE	32g#
32DD#	32f#
=47	=47
8EE	16g#
.	8ee
8FF#	.
.	8dd#
8GG#	.
.	[16ddn
=48	=48
8AA	16dd]
.	8cc#
8BB	.
.	8b
8C#	.
.	[16a
=49	=49
8D#	16a]
.	8g#
16E	.
16D#	8f#
16C#	.
16BB	32g#
.	32a
=50	=50
8.E	16g#
.	32b
.	32a
.	16b
32B	32g#
32A	32f#
16B	16g#
32G#	32e
32F#	32d#
=51	=51
16G#	8e
8c#	.
.	8f#
8A	.
.	8a
[16F#	.
=52	=52
16F#]	8b
32A	.
32G#	.
16A	8dd#
16F#	.
16D#	8ff#
[16BB	.
=53	=53
16BB]	8d#
8B	.
.	8e
8G#	.
.	8g#
[16E	.
=54	=54
16E]	8a
32G#	.
32F#	.
16G#	8cc#
16E	.
16C#	8ee
[16AA	.
=55	=55
16AA]	8c#
8A	.
.	8f#
8F#	.
.	8a
[16D#	.
=56	=56
16D#]	8b
8c#	.
.	8cc#
8B	.
.	8dd#
[16A	.
=57	=57
16A]	8ee
8G#	.
.	8cc#
8F#	.
.	8a
16E	.
=58	=58
16D#	[4.ff#
32A	.
32G#	.
16A	.
32D#	.
32C#	.
16D#	.
32G#	.
32F#	.
=59	=59
8G#	16ff#]
.	16ee
8A	16dd#
.	16cc#
8B	16b
.	16a
=60	=60
8E	16g#
.	32e
.	32d#
16r	16e
16e	32g#
.	32f#
16B	16g#
16G#	32b
.	32a
=61	=61
16E	16b
16B	32g#
.	32f#
16G#	16g#
16E	32b
.	32a
16BB	16b
16GG#	32ee
.	32dd#
=62	=62
4EE	16ee
.	16b
.	16g#
.	16e
8E	8r
==	==
*-	*-
!!!CDT: 1685/3//-1750/7/28
!!!OCY: Deutschland
